svg/aws-ec2-x2iezn.svg

<?xml version="1.0" encoding="UTF-8"?>
<svg xmlns="http://www.w3.org/2000/svg" xmlns:xlink="http://www.w3.org/1999/xlink" width="32" height="32" viewBox="0 0 32 32">
<path fill-rule="evenodd" fill="rgb(83.137255%, 35.686275%, 2.745098%)" fill-opacity="1" d="M 6 26 L 26 26 L 26 6 L 6 6 Z M 27.332031 8.667969 L 27.332031 11.332031 L 30.667969 11.332031 L 30.667969 12.667969 L 27.332031 12.667969 L 27.332031 15.332031 L 30.667969 15.332031 L 30.667969 16.667969 L 27.332031 16.667969 L 27.332031 19.332031 L 30.667969 19.332031 L 30.667969 20.667969 L 27.332031 20.667969 L 27.332031 23.332031 L 30.667969 23.332031 L 30.667969 24.667969 L 27.332031 24.667969 L 27.332031 26.667969 C 27.332031 27.035156 27.035156 27.332031 26.667969 27.332031 L 24.667969 27.332031 L 24.667969 30.667969 L 23.332031 30.667969 L 23.332031 27.332031 L 20.667969 27.332031 L 20.667969 30.667969 L 19.332031 30.667969 L 19.332031 27.332031 L 16.667969 27.332031 L 16.667969 30.667969 L 15.332031 30.667969 L 15.332031 27.332031 L 12.667969 27.332031 L 12.667969 30.667969 L 11.332031 30.667969 L 11.332031 27.332031 L 8.667969 27.332031 L 8.667969 30.667969 L 7.332031 30.667969 L 7.332031 27.332031 L 5.332031 27.332031 C 4.964844 27.332031 4.667969 27.035156 4.667969 26.667969 L 4.667969 24.667969 L 1.332031 24.667969 L 1.332031 23.332031 L 4.667969 23.332031 L 4.667969 20.667969 L 1.332031 20.667969 L 1.332031 19.332031 L 4.667969 19.332031 L 4.667969 16.667969 L 1.332031 16.667969 L 1.332031 15.332031 L 4.667969 15.332031 L 4.667969 12.667969 L 1.332031 12.667969 L 1.332031 11.332031 L 4.667969 11.332031 L 4.667969 8.667969 L 1.332031 8.667969 L 1.332031 7.332031 L 4.667969 7.332031 L 4.667969 5.332031 C 4.667969 4.964844 4.964844 4.667969 5.332031 4.667969 L 7.332031 4.667969 L 7.332031 1.332031 L 8.667969 1.332031 L 8.667969 4.667969 L 11.332031 4.667969 L 11.332031 1.332031 L 12.667969 1.332031 L 12.667969 4.667969 L 15.332031 4.667969 L 15.332031 1.332031 L 16.667969 1.332031 L 16.667969 4.667969 L 19.332031 4.667969 L 19.332031 1.332031 L 20.667969 1.332031 L 20.667969 4.667969 L 23.332031 4.667969 L 23.332031 1.332031 L 24.667969 1.332031 L 24.667969 4.667969 L 26.667969 4.667969 C 27.035156 4.667969 27.332031 4.964844 27.332031 5.332031 L 27.332031 7.332031 L 30.667969 7.332031 L 30.667969 8.667969 Z M 22.308594 15.496094 C 22.585938 15.320312 22.855469 15.234375 23.117188 15.234375 C 23.292969 15.234375 23.421875 15.277344 23.503906 15.367188 C 23.582031 15.457031 23.625 15.601562 23.625 15.796875 L 23.625 17.820312 L 24.332031 17.820312 L 24.332031 15.574219 C 24.332031 15.285156 24.253906 15.058594 24.101562 14.90625 C 23.949219 14.753906 23.730469 14.675781 23.4375 14.675781 C 23.027344 14.675781 22.636719 14.816406 22.261719 15.101562 L 22.1875 14.765625 L 21.601562 14.765625 L 21.601562 17.820312 L 22.308594 17.820312 Z M 21.144531 17.28125 L 19.421875 17.28125 L 21.125 15.289062 L 21.125 14.765625 L 18.722656 14.765625 L 18.722656 15.304688 L 20.363281 15.304688 L 18.660156 17.296875 L 18.660156 17.820312 L 21.144531 17.820312 Z M 16.433594 15.988281 L 17.75 15.988281 L 17.75 15.941406 C 17.75 15.699219 17.699219 15.511719 17.597656 15.382812 C 17.496094 15.253906 17.351562 15.191406 17.15625 15.191406 C 16.964844 15.183594 16.78125 15.261719 16.65625 15.40625 C 16.527344 15.550781 16.453125 15.746094 16.433594 15.988281 M 16.105469 17.5 C 15.84375 17.230469 15.714844 16.832031 15.714844 16.3125 C 15.714844 15.796875 15.84375 15.394531 16.097656 15.105469 C 16.351562 14.820312 16.707031 14.675781 17.160156 14.675781 C 17.554688 14.675781 17.855469 14.78125 18.0625 14.996094 C 18.273438 15.210938 18.378906 15.511719 18.378906 15.90625 C 18.378906 16.113281 18.363281 16.300781 18.328125 16.464844 L 16.433594 16.464844 C 16.445312 16.765625 16.527344 16.992188 16.679688 17.132812 C 16.835938 17.273438 17.070312 17.34375 17.386719 17.34375 C 17.671875 17.34375 17.980469 17.289062 18.3125 17.175781 L 18.3125 17.675781 C 18.175781 17.746094 18.015625 17.804688 17.828125 17.847656 C 17.636719 17.886719 17.445312 17.910156 17.25 17.910156 C 16.746094 17.910156 16.367188 17.773438 16.105469 17.5 M 14.808594 14.261719 C 14.921875 14.269531 15.035156 14.230469 15.121094 14.152344 C 15.199219 14.070312 15.238281 13.964844 15.234375 13.851562 C 15.238281 13.742188 15.199219 13.632812 15.121094 13.554688 C 15.035156 13.476562 14.921875 13.4375 14.808594 13.445312 C 14.695312 13.4375 14.582031 13.476562 14.496094 13.554688 C 14.417969 13.632812 14.378906 13.742188 14.382812 13.851562 C 14.382812 13.980469 14.421875 14.082031 14.496094 14.152344 C 14.582031 14.230469 14.695312 14.269531 14.808594 14.261719 M 14.457031 17.820312 L 15.164062 17.820312 L 15.164062 14.765625 L 14.457031 14.765625 Z M 13.855469 17.25 L 11.761719 17.25 C 12.242188 16.8125 12.617188 16.449219 12.890625 16.152344 C 13.164062 15.859375 13.363281 15.597656 13.484375 15.367188 C 13.605469 15.136719 13.667969 14.910156 13.667969 14.6875 C 13.667969 14.457031 13.617188 14.253906 13.511719 14.085938 C 13.40625 13.917969 13.25 13.78125 13.070312 13.699219 C 12.863281 13.605469 12.640625 13.558594 12.414062 13.566406 C 11.953125 13.566406 11.53125 13.722656 11.148438 14.035156 L 11.148438 14.621094 C 11.355469 14.476562 11.5625 14.367188 11.765625 14.289062 C 11.964844 14.210938 12.152344 14.171875 12.324219 14.171875 C 12.519531 14.171875 12.671875 14.222656 12.78125 14.324219 C 12.886719 14.425781 12.941406 14.570312 12.941406 14.753906 C 12.941406 14.910156 12.894531 15.078125 12.792969 15.261719 C 12.691406 15.449219 12.511719 15.6875 12.253906 15.988281 C 11.992188 16.289062 11.585938 16.71875 11.035156 17.28125 L 11.035156 17.820312 L 13.855469 17.820312 Z M 7.195312 17.820312 L 8.585938 15.664062 L 7.292969 13.660156 L 8.023438 13.660156 L 9.011719 15.136719 L 9.980469 13.660156 L 10.710938 13.660156 L 9.410156 15.652344 L 10.808594 17.820312 L 10.074219 17.820312 L 8.984375 16.175781 L 7.925781 17.820312 Z M 7.195312 17.820312 "/>
</svg>

<svg role="img" viewBox="0 0 32 32" height="32" width="32" xmlns="http://www.w3.org/2000/svg"><path d="M6 26h20V6H6ZM27.332 8.668v2.664h3.336v1.336h-3.336v2.664h3.336v1.336h-3.336v2.664h3.336v1.336h-3.336v2.664h3.336v1.336h-3.336v2a.664.664 0 0 1-.664.664h-2v3.336h-1.336v-3.336h-2.664v3.336h-1.336v-3.336h-2.664v3.336h-1.336v-3.336h-2.664v3.336h-1.336v-3.336H8.668v3.336H7.332v-3.336h-2a.664.664 0 0 1-.664-.664v-2H1.332v-1.336h3.336v-2.664H1.332v-1.336h3.336v-2.664H1.332v-1.336h3.336v-2.664H1.332v-1.336h3.336V8.668H1.332V7.332h3.336v-2c0-.367.297-.664.664-.664h2V1.332h1.336v3.336h2.664V1.332h1.336v3.336h2.664V1.332h1.336v3.336h2.664V1.332h1.336v3.336h2.664V1.332h1.336v3.336h2c.367 0 .664.297.664.664v2h3.336v1.336Zm-5.023 6.828c.277-.176.546-.262.808-.262.176 0 .305.043.387.133.078.09.121.235.121.43v2.023h.707v-2.246c0-.289-.078-.515-.23-.668-.153-.152-.372-.23-.665-.23-.41 0-.8.14-1.175.426l-.075-.336h-.585v3.054h.707Zm-1.164 1.785h-1.723l1.703-1.992v-.523h-2.402v.539h1.64l-1.703 1.992v.523h2.485Zm-4.711-1.293h1.316v-.047c0-.242-.05-.43-.152-.558-.102-.13-.246-.192-.442-.192a.625.625 0 0 0-.5.215c-.129.145-.203.34-.222.582m-.329 1.512c-.261-.27-.39-.668-.39-1.187 0-.516.129-.918.383-1.208.254-.285.609-.43 1.062-.43.395 0 .695.106.902.321.211.215.317.516.317.91 0 .207-.016.395-.05.559h-1.895c.011.3.093.527.246.668.156.14.39.21.707.21.285 0 .593-.054.925-.167v.5c-.136.07-.296.129-.484.172a2.88 2.88 0 0 1-.578.062c-.504 0-.883-.137-1.145-.41m-1.296-3.238a.422.422 0 0 0 .312-.11.409.409 0 0 0 .113-.3.4.4 0 0 0-.113-.297.422.422 0 0 0-.312-.11.422.422 0 0 0-.313.11.4.4 0 0 0-.113.297c0 .128.039.23.113.3.086.078.2.118.313.11m-.352 3.558h.707v-3.054h-.707Zm-.602-.57h-2.093c.48-.437.855-.8 1.129-1.098.273-.293.472-.554.593-.785.121-.23.184-.457.184-.68 0-.23-.05-.433-.156-.601a1.032 1.032 0 0 0-.442-.387 1.464 1.464 0 0 0-.656-.133c-.46 0-.883.157-1.266.47v.585c.207-.144.415-.254.618-.332.199-.078.386-.117.558-.117.196 0 .348.05.457.152.106.102.16.246.16.43 0 .156-.046.324-.148.508-.102.187-.281.425-.54.726-.26.301-.667.73-1.218 1.293v.54h2.82Zm-6.66.57 1.39-2.156-1.292-2.004h.73l.989 1.477.968-1.477h.73l-1.3 1.992 1.399 2.168h-.735l-1.09-1.644-1.058 1.644Zm0 0" fill="rgb(83.137255%, 35.686275%, 2.745098%)" fill-rule="evenodd"/></svg>
